svg/free/border-all.svg

<svg version="1.1" xmlns="http://www.w3.org/2000/svg" width="24" height="24" viewBox="0 0 24 24">
<title>border-all</title>
<path d="M21.375 1.875h-18.75c-0.414 0-0.75 0.336-0.75 0.75v0 18.75c0 0.414 0.336 0.75 0.75 0.75v0h18.75c0.414 0 0.75-0.336 0.75-0.75v0-18.75c0-0.414-0.336-0.75-0.75-0.75v0zM20.625 11.25h-7.875v-7.875h7.875zM3.375 3.375h7.875v7.875h-7.875zM3.375 12.75h7.875v7.875h-7.875zM20.625 20.625h-7.875v-7.875h7.875z"></path>
</svg>

<svg xmlns="http://www.w3.org/2000/svg" width="24" height="24" viewBox="0 0 24 24"><path d="M21.375 1.875H2.625a.75.75 0 00-.75.75v18.75c0 .414.336.75.75.75h18.75a.75.75 0 00.75-.75V2.625a.75.75 0 00-.75-.75zm-.75 9.375H12.75V3.375h7.875zM3.375 3.375h7.875v7.875H3.375zm0 9.375h7.875v7.875H3.375zm17.25 7.875H12.75V12.75h7.875z"/></svg>
